!!!!SEGMENT: pl-wnifc--6670-n--001-016_gall-jan-karol--piesni-polskie-na-chor-meski-z-i-4-jezus-malusienki.krn
!!!cenid: 19xx:184
!!!COM: Gall, Jan Karol
!!!COM-rismID: pe50042628
!!!CDT: 1856-1912
!!!CNT: Polish
!!!GTL: Pieśni polskie na chór męski (z. I)
!!!OTL: 4. Jezus malusieńki
!!!OMV: 016
!!!PDT:
!!!AGN:
!!!YEC: Copyright 2022 Narodowy Instytut Fryderyka Chopina (https://polishscores.org)
!!!YEM: License CC-BY-4.0 (https://creativecommons.org/licenses/by/4.0)
!!!SMS-siglum: PL-Wnifc
!!!SMS-shelfmark: 6670/n
!!!SMS-variant:
!!!SMS-altvar:
!!!SMS-shelfwork: 001-016 G
!!!NIFC-rismSourceID: 1001152877
!!!NIFC-rismChildID: 1001152904
!!!NIFC-islandoraID: nifc:213182
!!!URL-pdf-islandora: https://repozytorium.nifc.pl/islandora/object/nifc:213182/datastream/PDF/view
!!!URL-scan: https://polish.musicsources.pl/pl/lokalizacje/galeria/druki-muzyczne/16895/9 @EN{Scan on Polish Music Sources Website} @PL{Skany w portalu Dziedzictwo Muzyki Polskiej w otwartym dostępie}
!!!IIIF:
!!!ONB-nifc:
!!!AIN: 1 bass 1 tenor
!!!key: e-
**kern	**dynam	**kern	**text	**dynam
*part2	*part2	*part1	*part1	*part1
*staff2	*	*staff1	*staff1	*
*ICvox	*	*ICvox	*	*
*Ibass	*	*Itenor	*	*
*I"Basy.	*	*I"Tenory.	*	*
*I'	*	*I'	*	*
*clefF4	*	*clefG2	*	*
*	*	*ITrd8c12	*	*
*k[b-e-a-d-g-c-]	*	*k[b-e-a-d-g-c-]	*	*
*e-:	*	*e-:	*	*
*M3/4	*	*M3/4	*	*
*>[A,A]	*>[A,A]	*>[A,A]	*>[A,A]	*>[A,A]
=1	=1	=1	=1	=1
*>A	*>A	*>A	*>A	*>A
*	*	*	*^	*
*^	*	*^	*	*	*
!!LO:TX:a:B:t=Andante.
!	!	!LO:DY:b:rj	!LO:TX:t=P:problem:partia zapisana bez przenośnika oktawowego	!	!	!	!LO:DY:a:rj
8B-/	8E-\	p	8g-/	8B-\	Je-	Bo	p
8A-/	8E-\	.	8f/	8B-\	-zus	u-	.
4G-/	4E-\	.	4e-/	4B-\	ma-	-bo-	.
8F/L	4E-\	.	8dn/L	4B-\	-lu-	-ga	.
8G-/J	.	.	8e-/J	.	.	.	.
=2	=2	=2	=2	=2	=2	=2	=2
4B-/	4BB-\	.	4f/	4dn\	-sień-	by-	.
2BB-/	2BB-\	.	2B-/	2B-\	-ki	-ła	.
=3	=3	=3	=3	=3	=3	=3	=3
8B-/	8E-\	.	8g-/	8B-\	drżą-	rą-	.
8A-/	8E-\	.	8f/	8B-\	-cy	-bek	.
4G-/	4E-\	.	4e-/	4B-\	ca-	z gło-	.
8F/L	4E-\	.	8dn/L	4B-\	-lu-	-wy	.
8G-/J	.	.	8e-/J	.	.	.	.
=4	=4	=4	=4	=4	=4	=4	=4
4B-/	4BB-\	.	4f/	4dn\	-sień-	zdję-	.
2BB-/	2BB-\	.	2B-/	2B-\	-ki	-ła	.
=5	=5	=5	=5	=5	=5	=5	=5
8E-/	8C-\	.	8A-/	8A-\	pła-	w któ-	.
!	!	!	!	!	!	!	!LO:HP:a
8E-/	8BB-\	<	8B-/	8G-\	-cze	-ry	<
4E-/	4AA-\	[	4c-/	4G-\	z zim-	dzie-	[
4D-/	4D-\	.	4c-/	4F\	-na	-cie	.
=6	=6	=6	=6	=6	=6	=6	=6
8D-/	8GG-\	.	8B-/	8G-\	nie	o-	.
8D-/	8AA-\	.	8c-/	8G-\	da-	-wi-	.
4D-/	4BB-\	.	4d-/	4G-\	-ła	-ną-	.
4D-/	4BB-\	.	4d-/	4G-\	mu	-wszy	.
!!LO:LB:g=original
=7	=7	=7	=7	=7	=7	=7	=7
8C-/	8C-\	.	8e-/	8G-\	ma-	sian-	.
8D-/	8BB-\	.	8d-/	8G-\	-tu-	-kiem	.
4E-/	4AA-\	.	4c-/	4G-\	-sia	go	.
!	!	!	!	!	!	!	!LO:HP:a
4D-/	4D-\	>	8B-/L	4F\	su-	o-	>
.	.	]	8A-/J	.	.	.	]
=8	=8	=8	=8	=8	=8	=8	=8
4D-/	4D-\	.	4A-/	4F\	-kien-	-kry-	.
2D-/	2GG-\	.	2B-/	2G-\	-ki	-ła	.
=9	=9	=9	=9	=9	=9	=9	=9
!	!	!LO:DY:b:rj	!	!	!	!	!LO:DY:a:rj
8E-/	8C-\	p	8A-/	8G-\	Pła-	w któ-	p
8E-/	8BB-\	.	8B-/	8G-\	-cze	-ry	.
4E-/	4AA-\	.	4c-/	4G-\	z zim-	dzie-	.
4D-/	4D-\	.	4c-/	4F\	-na	-cie	.
=10	=10	=10	=10	=10	=10	=10	=10
8D-/	8GG-\	.	8B-/	8G-\	nie	o-	.
8D-/	8AA-\	.	8c-/	8G-\	da-	-wi-	.
4D-/	4BB-\	.	4d-/	4G-\	-ła	-ną-	.
4D-/	4BB-\	.	4d-/	4G-\	mu	-wszy	.
=11	=11	=11	=11	=11	=11	=11	=11
8C-/	8C-\	.	8e-/	8G-\	ma-	sian-	.
!	!	!	!	!	!	!	!LO:HP:a
8D-/	8BB-\	>	8d-/	8G-\	-tu-	-kiem	>
4E-/	4AA-\	]	4c-/	4G-\	-sia	go	]
8Dn/L	8BB-\L	.	8B-/L	8F\L	su-	o-	.
8E-/J	8C-\J	.	8A-/J	8E-\J	.	.	.
=12	=12	=12	=12	=12	=12	=12	=12
8E-/L	4BB-\	.	4B-/	4F\	-kien-	-kry-	.
8Dn/J	.	.	.	.	.	.	.
2E-/	2E-\	.	2E-/	2E-\	-ki.	-ła.	.
*v	*v	*	*	*	*	*	*
*	*	*v	*v	*	*	*
*	*	*	*v	*v	*
=:|!	=:|!	=:|!	=:|!	=:|!
*-	*-	*-	*-	*-
!!!system-decoration: [(s1,s2)]
!!!RDF**kern: > = above
!!!RDF**kern: < = below
!!!RDF**kern: N = linked
!!!ENC: Andrzej Gręziak
!!!EED: Katarzyna Serwa
!!!END: 2024-05-04
!!!EEV: 2025-03-09
